Simply-Blue-Circles/symbolic/categories/applications-development-symbolic.svg

<svg xmlns="http://www.w3.org/2000/svg" width="24" height="24" viewBox="0 0 6.35 6.35"><path d="M4.318 1.156L3.211 3.184l.088.135.81.003v.356h-.035a.121.121 0 0 0-.121.122v1.224c0 .067.054.121.121.121h.43a.121.121 0 0 0 .122-.121V3.8a.121.121 0 0 0-.121-.122h-.052v-.355l.8.002.1-.145zm-2.17.232c-.327.016-.74.28-1.134.828 0 0 1.17-.599 1.17.36v.927h-.116s-.117 0-.117.117v1.404c0 .117.117.117.117.117h.702s.117 0 .117-.117V3.62c0-.117-.117-.117-.117-.117h-.117v-.98c.002-.109.068-.402.347-.402l.238.212h.35v-.936h-.35L3 1.557s-.524-.185-.851-.169z" fill="gray"/></svg>

<?xml version="1.0" encoding="UTF-8" standalone="no"?>
<svg
   xmlns:dc="http://purl.org/dc/elements/1.1/"
   xmlns:cc="http://creativecommons.org/ns#"
   xmlns:rdf="http://www.w3.org/1999/02/22-rdf-syntax-ns#"
   xmlns:svg="http://www.w3.org/2000/svg"
   xmlns="http://www.w3.org/2000/svg"
   xmlns:sodipodi="http://sodipodi.sourceforge.net/DTD/sodipodi-0.dtd"
   xmlns:inkscape="http://www.inkscape.org/namespaces/inkscape"
   width="24"
   height="24"
   viewBox="0 0 6.35 6.35"
   version="1.1"
   id="svg4"
   sodipodi:docname="applications-development-symbolic.svg"
   inkscape:version="0.92.4 (5da689c313, 2019-01-14)">
  <metadata
     id="metadata10">
    <rdf:RDF>
      <cc:Work
         rdf:about="">
        <dc:format>image/svg+xml</dc:format>
        <dc:type
           rdf:resource="http://purl.org/dc/dcmitype/StillImage" />
        <dc:title></dc:title>
      </cc:Work>
    </rdf:RDF>
  </metadata>
  <defs
     id="defs8" />
  <sodipodi:namedview
     pagecolor="#ffffff"
     bordercolor="#666666"
     borderopacity="1"
     objecttolerance="10"
     gridtolerance="10"
     guidetolerance="10"
     inkscape:pageopacity="0"
     inkscape:pageshadow="2"
     inkscape:window-width="1085"
     inkscape:window-height="480"
     id="namedview6"
     showgrid="false"
     inkscape:zoom="9.8333333"
     inkscape:cx="1.0677966"
     inkscape:cy="12"
     inkscape:window-x="0"
     inkscape:window-y="25"
     inkscape:window-maximized="0"
     inkscape:current-layer="svg4" />
  <path
     d="M 4.318,1.156 3.211,3.184 3.299,3.319 4.109,3.322 V 3.678 H 4.074 A 0.121,0.121 0 0 0 3.953,3.8 v 1.224 c 0,0.067 0.054,0.121 0.121,0.121 h 0.43 A 0.121,0.121 0 0 0 4.626,5.024 V 3.8 A 0.121,0.121 0 0 0 4.505,3.678 H 4.453 V 3.323 l 0.8,0.002 0.1,-0.145 z m -2.17,0.232 c -0.327,0.016 -0.74,0.28 -1.134,0.828 0,0 1.17,-0.599 1.17,0.36 V 3.503 H 2.068 c 0,0 -0.117,0 -0.117,0.117 v 1.404 c 0,0.117 0.117,0.117 0.117,0.117 H 2.77 c 0,0 0.117,0 0.117,-0.117 V 3.62 C 2.887,3.503 2.77,3.503 2.77,3.503 H 2.653 V 2.523 C 2.655,2.414 2.721,2.121 3,2.121 l 0.238,0.212 h 0.35 V 1.397 H 3.238 L 3,1.557 c 0,0 -0.524,-0.185 -0.851,-0.169 z"
     id="path2"
     inkscape:connector-curvature="0"
     style="fill:#808080" />
</svg>
